public/brand-shopify.svg

<svg width="300" height="86" viewBox="0 0 300 86" fill="none" xmlns="http://www.w3.org/2000/svg">
  <g clip-path="url(#clip0_304_37)">
    <path
      d="M64.7104 16.5629C64.6524 16.1401 64.283 15.9055 63.9765 15.88C63.6723 15.8545 57.7122 15.7639 57.7122 15.7639C57.7122 15.7639 52.7276 10.9234 52.2352 10.431C51.7429 9.93855 50.7812 10.0872 50.4073 10.1987C50.4027 10.201 49.4713 10.489 47.9034 10.9745C47.641 10.1244 47.2553 9.07914 46.7048 8.02928C44.9304 4.64279 42.3313 2.85198 39.1909 2.84735C39.1863 2.84735 39.1839 2.84735 39.1793 2.84735C38.9609 2.84735 38.7449 2.86825 38.5267 2.88682C38.4338 2.77533 38.3408 2.66618 38.2433 2.55932C36.8752 1.09602 35.1216 0.382955 33.0195 0.445668C28.9641 0.561803 24.925 3.49073 21.65 8.69358C19.3458 12.3542 17.5921 16.9532 17.0951 20.5138C12.4381 21.9562 9.18163 22.9642 9.10963 22.9875C6.75906 23.7261 6.68474 23.7981 6.37814 26.014C6.15052 27.6886 0 75.2483 0 75.2483L51.5431 84.1628L73.8827 78.6092C73.8827 78.6092 64.7685 16.9857 64.7104 16.5629ZM45.3229 11.7735C44.136 12.1405 42.7864 12.5586 41.3231 13.0115C41.293 10.9582 41.0491 8.1013 40.0921 5.63225C43.1697 6.21526 44.6841 9.69699 45.3229 11.7735ZM38.6265 13.8477C35.9252 14.6838 32.9777 15.5966 30.0209 16.5118C30.8524 13.3274 32.4296 10.1569 34.3667 8.07806C35.0867 7.30461 36.0947 6.44288 37.2886 5.95046C38.4105 8.29175 38.6544 11.6062 38.6265 13.8477ZM33.1007 3.14464C34.0531 3.12374 34.8544 3.33279 35.5397 3.78339C34.4434 4.35245 33.3841 5.17005 32.3901 6.23616C29.8141 9.00018 27.8399 13.2902 27.0525 17.4293C24.5973 18.1887 22.1957 18.9344 19.9845 19.6173C21.3805 13.1021 26.8411 3.32581 33.1007 3.14464Z"
      fill="#2563EB" />
    <path
      d="M63.9787 15.8824C63.6745 15.8568 57.7144 15.7663 57.7144 15.7663C57.7144 15.7663 52.7299 10.9257 52.2375 10.4333C52.054 10.2498 51.8055 10.1546 51.5453 10.1151L51.5477 84.1606L73.8851 78.6093C73.8851 78.6093 64.7708 16.988 64.7128 16.5653C64.6546 16.1425 64.283 15.9079 63.9787 15.8824Z"
      fill="#0B41B8" />
    <path
      d="M39.163 27.3682L36.5686 37.0747C36.5686 37.0747 33.6745 35.7577 30.2439 35.9737C25.2128 36.292 25.1594 39.4647 25.2106 40.2615C25.4846 44.6026 36.9053 45.5503 37.5465 55.719C38.0505 63.7184 33.3028 69.1907 26.4625 69.6227C18.2517 70.1407 13.7318 65.2978 13.7318 65.2978L15.4715 57.8977C15.4715 57.8977 20.0216 61.3307 23.6636 61.1007C26.0421 60.9498 26.8921 59.015 26.8062 57.6468C26.4486 51.9841 17.1484 52.3186 16.5608 43.0138C16.066 35.1841 21.2086 27.2497 32.5549 26.5343C36.9262 26.2533 39.163 27.3682 39.163 27.3682Z"
      fill="#e8ebe7" />
    <path
      d="M103.301 47.6935C100.732 46.2997 99.4119 45.1248 99.4119 43.5099C99.4119 41.4549 101.246 40.1348 104.109 40.1348C107.443 40.1348 110.419 41.5286 110.419 41.5286L112.767 34.3363C112.767 34.3363 110.608 32.6476 104.254 32.6476C95.4126 32.6476 89.2846 37.7112 89.2846 44.8299C89.2846 48.866 92.1459 51.9485 95.9632 54.1486C99.0456 55.9087 100.147 57.1574 100.147 58.9911C100.147 60.8987 98.6057 62.4399 95.7444 62.4399C91.48 62.4399 87.4531 60.2374 87.4531 60.2374L84.9582 67.4298C84.9582 67.4298 88.6788 69.9248 94.938 69.9248C104.038 69.9248 110.569 65.4485 110.569 57.3761C110.567 53.0497 107.265 49.9673 103.301 47.6935Z"
      fill="#2563EB" />
    <path
      d="M139.553 32.5762C135.076 32.5762 131.554 34.7049 128.84 37.9325L128.693 37.8587L132.581 17.5327H122.454L112.622 69.2659H122.749L126.124 51.5822C127.444 44.9037 130.893 40.796 134.123 40.796C136.396 40.796 137.279 42.3372 137.279 44.5396C137.279 45.9334 137.131 47.6221 136.839 49.0159L133.024 69.2683H143.152L147.113 48.3547C147.554 46.1522 147.848 43.5122 147.848 41.7498C147.844 36.0249 144.836 32.5762 139.553 32.5762Z"
      fill="#2563EB" />
    <path
      d="M170.739 32.5762C158.556 32.5762 150.487 43.5837 150.487 55.8373C150.487 63.6886 155.329 69.9986 164.429 69.9986C176.39 69.9986 184.462 59.2861 184.462 46.7374C184.462 39.4737 180.205 32.5762 170.739 32.5762ZM165.749 62.2233C162.3 62.2233 160.832 59.2883 160.832 55.6184C160.832 49.8221 163.842 40.3561 169.345 40.3561C172.941 40.3561 174.113 43.4384 174.113 46.4472C174.113 52.6834 171.107 62.2233 165.749 62.2233Z"
      fill="#2563EB" />
    <path
      d="M210.366 32.5762C203.53 32.5762 199.651 38.5936 199.651 38.5936H199.506L200.093 33.1636H191.14C190.701 36.8335 189.892 42.4087 189.086 46.5923L182.041 83.6483H192.169L194.955 68.6785H195.177C195.177 68.6785 197.255 69.9986 201.121 69.9986C213.008 69.9986 220.786 57.8186 220.786 45.4889C220.786 38.6674 217.776 32.5762 210.366 32.5762ZM200.679 62.3684C198.05 62.3684 196.494 60.9009 196.494 60.9009L198.183 51.4349C199.358 45.1248 202.659 40.9412 206.182 40.9412C209.265 40.9412 210.218 43.8025 210.218 46.5187C210.218 53.0497 206.329 62.3684 200.679 62.3684Z"
      fill="#2563EB" />
    <path
      d="M235.242 18.0464C232.014 18.0464 229.446 20.6151 229.446 23.9164C229.446 26.9252 231.353 28.9801 234.215 28.9801H234.361C237.518 28.9801 240.232 26.8513 240.306 23.1101C240.306 20.175 238.324 18.0464 235.242 18.0464Z"
      fill="#2563EB" />
    <path d="M221.08 69.2659H231.205L238.105 33.3848H227.904L221.08 69.2659Z" fill="#2563EB" />
    <path
      d="M263.862 33.3111H256.817L257.182 31.6225C257.77 28.1737 259.825 25.0913 263.2 25.0913C265.002 25.0913 266.428 25.605 266.428 25.605L268.409 17.6801C268.409 17.6801 266.648 16.8001 262.905 16.8001C259.309 16.8001 255.716 17.8275 252.999 20.175C249.55 23.1101 247.935 27.3651 247.129 31.6225L246.837 33.3111H242.139L240.671 40.9435H245.369L240.013 69.2683H250.14L255.497 40.9435H262.468L263.862 33.3111Z"
      fill="#2563EB" />
    <path
      d="M288.223 33.3849C288.223 33.3849 281.893 49.3338 279.05 58.0398H278.902C278.71 55.2361 276.407 33.3849 276.407 33.3849H265.767L271.86 66.3309C272.008 67.0636 271.934 67.506 271.64 68.0196C270.463 70.2934 268.483 72.4959 266.135 74.1108C264.227 75.5045 262.1 76.3846 260.413 76.972L263.2 85.5582C265.256 85.1182 269.51 83.4295 273.106 80.0545C277.73 75.7257 281.985 69.0471 286.387 59.9472L298.789 33.3826H288.223V33.3849Z"
      fill="#2563EB" />
  </g>
  <defs>
    <clipPath id="clip0_304_37">
      <rect width="300" height="85.1163" fill="#e8ebe7" transform="translate(0 0.441864)" />
    </clipPath>
  </defs>
</svg>

<svg width="300" height="86" fill="none" xmlns="http://www.w3.org/2000/svg"><g clip-path="url(#prefix__clip0_304_37)"><path d="M64.71 16.563c-.058-.423-.427-.657-.733-.683-.305-.026-6.265-.116-6.265-.116s-4.984-4.84-5.477-5.333c-.492-.492-1.454-.344-1.828-.232l-2.504.776a17.547 17.547 0 00-1.198-2.946C44.93 4.643 42.33 2.852 39.19 2.847h-.012c-.218 0-.434.021-.652.04a9.608 9.608 0 00-.284-.328C36.875 1.096 35.122.383 33.02.446 28.965.562 24.925 3.49 21.65 8.694c-2.304 3.66-4.058 8.26-4.555 11.82-4.657 1.442-7.913 2.45-7.985 2.474-2.35.738-2.425.81-2.732 3.026C6.151 27.689 0 75.248 0 75.248l51.543 8.915 22.34-5.554s-9.114-61.623-9.173-62.046zm-19.387-4.79l-4 1.239c-.03-2.054-.274-4.91-1.23-7.38 3.077.583 4.591 4.065 5.23 6.142zm-6.697 2.075l-8.605 2.664c.831-3.185 2.409-6.355 4.346-8.434.72-.773 1.728-1.635 2.922-2.128 1.121 2.342 1.365 5.656 1.337 7.898zM33.102 3.145c.952-.021 1.753.188 2.439.638-1.097.57-2.156 1.387-3.15 2.453C29.814 9 27.84 13.29 27.052 17.43c-2.455.76-4.856 1.505-7.067 2.188C21.38 13.102 26.84 3.326 33.1 3.145z" fill="#2563EB"/><path d="M63.979 15.882c-.304-.025-6.265-.116-6.265-.116s-4.984-4.84-5.477-5.333c-.183-.183-.431-.278-.692-.318l.003 74.046 22.337-5.552s-9.114-61.621-9.172-62.044c-.058-.423-.43-.657-.734-.683z" fill="#0B41B8"/><path d="M39.163 27.368l-2.594 9.707s-2.895-1.317-6.325-1.101c-5.031.318-5.085 3.49-5.033 4.288.274 4.34 11.694 5.288 12.336 15.457.504 8-4.244 13.472-11.084 13.904-8.211.518-12.731-4.325-12.731-4.325l1.74-7.4s4.55 3.433 8.192 3.203c2.378-.151 3.228-2.086 3.142-3.454-.357-5.663-9.658-5.328-10.245-14.633-.495-7.83 4.648-15.764 15.994-16.48 4.371-.28 6.608.834 6.608.834z" fill="#e8ebe7"/><path d="M103.301 47.694c-2.569-1.394-3.89-2.57-3.89-4.184 0-2.055 1.835-3.375 4.698-3.375 3.334 0 6.31 1.394 6.31 1.394l2.348-7.193s-2.159-1.688-8.513-1.688c-8.841 0-14.97 5.063-14.97 12.182 0 4.036 2.862 7.119 6.68 9.319 3.082 1.76 4.183 3.008 4.183 4.842 0 1.908-1.541 3.449-4.403 3.449-4.264 0-8.29-2.203-8.29-2.203l-2.496 7.193s3.72 2.495 9.98 2.495c9.1 0 15.631-4.477 15.631-12.549-.002-4.326-3.304-7.409-7.268-9.682zM139.553 32.576c-4.477 0-7.999 2.129-10.713 5.356l-.147-.073 3.888-20.326h-10.127l-9.832 51.733h10.127l3.375-17.684c1.32-6.678 4.769-10.786 7.999-10.786 2.273 0 3.156 1.541 3.156 3.744 0 1.393-.148 3.082-.44 4.476l-3.815 20.252h10.128l3.961-20.913c.441-2.203.735-4.843.735-6.605-.004-5.725-3.012-9.174-8.295-9.174zM170.739 32.576c-12.183 0-20.252 11.008-20.252 23.261 0 7.852 4.842 14.162 13.942 14.162 11.961 0 20.033-10.713 20.033-23.262 0-7.263-4.257-14.16-13.723-14.16zm-4.99 29.647c-3.449 0-4.917-2.935-4.917-6.605 0-5.796 3.01-15.262 8.513-15.262 3.596 0 4.768 3.082 4.768 6.091 0 6.236-3.006 15.776-8.364 15.776zM210.366 32.576c-6.836 0-10.715 6.018-10.715 6.018h-.145l.587-5.43h-8.953c-.439 3.67-1.248 9.245-2.054 13.428l-7.045 37.056h10.128l2.786-14.97h.222s2.078 1.32 5.944 1.32c11.887 0 19.665-12.18 19.665-24.51 0-6.82-3.01-12.912-10.42-12.912zm-9.687 29.792c-2.629 0-4.185-1.467-4.185-1.467l1.689-9.466c1.175-6.31 4.476-10.494 7.999-10.494 3.083 0 4.036 2.861 4.036 5.578 0 6.53-3.889 15.85-9.539 15.85zM235.242 18.046c-3.228 0-5.796 2.57-5.796 5.87 0 3.01 1.907 5.064 4.769 5.064h.146c3.157 0 5.871-2.129 5.945-5.87 0-2.935-1.982-5.064-5.064-5.064zM221.08 69.266h10.125l6.9-35.881h-10.201l-6.824 35.88zM263.862 33.311h-7.045l.365-1.689c.588-3.448 2.643-6.53 6.018-6.53 1.802 0 3.228.513 3.228.513l1.981-7.925s-1.761-.88-5.504-.88c-3.596 0-7.189 1.027-9.906 3.375-3.449 2.935-5.064 7.19-5.87 11.447l-.292 1.69h-4.698l-1.468 7.632h4.698l-5.356 28.324h10.127l5.357-28.325h6.971l1.394-7.632zM288.223 33.385s-6.33 15.949-9.173 24.655h-.148c-.192-2.804-2.495-24.655-2.495-24.655h-10.64l6.093 32.946c.148.733.074 1.175-.22 1.689-1.177 2.273-3.157 4.476-5.505 6.09-1.908 1.394-4.035 2.275-5.722 2.862l2.787 8.586c2.056-.44 6.31-2.129 9.906-5.504 4.624-4.328 8.879-11.007 13.281-20.107l12.402-26.564h-10.566v.002z" fill="#2563EB"/></g><defs><clipPath id="prefix__clip0_304_37"><path fill="#e8ebe7" transform="translate(0 .442)" d="M0 0h300v85.116H0z"/></clipPath></defs></svg>
